img/logo-brand.svg

<svg fill="none" height="24" viewBox="0 0 141 24" width="141" xmlns="http://www.w3.org/2000/svg"><g fill="#fff"><path d="m98.4857 21.7285c0-.0751.084-.1205.1483-.0817.6815.4104 1.554.661 2.398.661 1.48 0 2.34-.8353 2.34-2.2006v-.48c0-.011-.006-.0211-.016-.0261-.01-.0049-.022-.004-.03.0024-.555.3951-1.266.6161-2.039.6161-2.0374 0-3.6926-1.5421-3.6926-3.9033 0-2.3453 1.6712-4.1444 4.1226-4.1444h2.196 1.291c.052 0 .094.0422.094.0942v7.8893c0 2.4255-1.624 3.823-4.123 3.823-1.009 0-1.9585-.2449-2.6398-.6002-.0307-.016-.0495-.0478-.0495-.0824zm1.0504-5.4765c0 1.3493.8439 2.3452 2.2119 2.3452.603 0 1.176-.2119 1.587-.5182.023-.0174.037-.0449.037-.074v-4.0684c0-.0519-.042-.0941-.094-.0941-.396 0-.919 0-1.434 0-1.48 0-2.3079 1.0763-2.3079 2.4095z"/><path d="m113.951 19.6851c0 .0327-.017.0631-.045.0797-.733.4336-1.838.6958-2.836.6958-2.547 0-4.345-1.6064-4.345-4.1283 0-2.554 1.814-4.1604 3.979-4.1604 1.958 0 3.677 1.3012 3.677 3.9034 0 .2247-.013.5109-.037.7081-.006.0457-.045.079-.091.079h-5.475c-.058 0-.103.0526-.091.1096.261 1.2441 1.275 1.8662 2.59 1.8662.896 0 1.765-.2973 2.526-.7722.064-.0398.148.0054.148.0805zm-5.247-4.2821c-.012.0572.032.1101.091.1101h3.683c.056 0 .099-.0483.092-.1035-.165-1.1927-1.031-1.6635-1.882-1.6635-.894 0-1.743.5572-1.984 1.6569z"/><path d="m115.947 20.2839c-.052 0-.094-.0422-.094-.0941v-7.747c0-.052.042-.0942.094-.0942h1.722c.052 0 .094.0422.094.0942v.676c0 .0104.006.0199.015.0246.01.0051.022.0035.031-.0039.636-.556 1.521-.9676 2.564-.9676.86 0 1.544.2731 2.053.8193.494.5461.685 1.2529.685 2.3131v4.8855c0 .0519-.042.0941-.094.0941h-1.738c-.052 0-.094-.0422-.094-.0941v-4.6446c0-.5622-.08-.9798-.35-1.2529-.271-.2731-.653-.4016-1.083-.4016-.718 0-1.452.356-1.946.8401-.017.0174-.027.0412-.027.0661v5.3929c0 .0519-.042.0941-.094.0941z"/><path d="m131.239 19.7993c0 .0318-.016.0614-.043.0783-.634.3987-1.52.583-2.36.583-2.563 0-4.329-1.7349-4.329-4.1283 0-2.4577 1.878-4.1604 4.376-4.1604.824 0 1.632.1837 2.248.5511.028.0167.044.047.044.0796v1.5834c0 .0759-.085.121-.149.0805-.577-.3637-1.268-.6079-1.999-.6079-1.544 0-2.579 1.028-2.579 2.4577 0 1.4456 1.051 2.4416 2.595 2.4416.751 0 1.502-.2381 2.039-.6062.065-.0447.157.0004.157.0794z"/><path d="m135.623 23.7626c-.015.0336-.049.0552-.086.0552h-1.796c-.069 0-.114-.0719-.085-.1343l2.003-4.2435c.012-.0251.012-.0542 0-.0794l-3.151-6.8786c-.029-.0624.017-.1334.085-.1334h1.862c.037 0 .07.022.086.056l1.073 2.4178c.364.83.712 1.6601 1.028 2.4428.004.009.013.0148.022.0148.01 0 .019-.0057.022-.0145.349-.8303.697-1.6447 1.061-2.4592l1.073-2.4019c.015-.0339.049-.0558.086-.0558h1.75c.069 0 .114.0707.086.133z"/><path clip-rule="evenodd" d="m95.6967 20.4866h-3.8986c-1.6001 0-2.8083-.8734-2.8083-2.4388 0-1.7303 1.3225-2.5212 3.3308-2.5212.4898 0 1.0612.0494 1.5837.1318v-.4943c0-1.0052-.6694-1.4501-1.9429-1.4501-.8205 0-1.5429.2102-2.0717.4701-.1044.0512-.2305-.0231-.2305-.1403v-1.33c0-.0541.0282-.1043.0753-.1303.5918-.326 1.5078-.5833 2.6187-.5833 2.1878 0 3.494.9722 3.494 2.9167v1.0719l.8389.1426c.0726.0123.1258.0758.1258.1501v1.0069c0 .0944-.0844.1661-.1767.15l-.788-.138v.7968 2.2371c0 .0841-.0672.1523-.1505.1523zm-1.9432-1.5325h-1.4819c-.7511 0-1.3389-.3131-1.3389-1.0382 0-.8074.7674-1.071 1.6817-1.071.3919 0 .9144.0494 1.2899.1153v1.8416c0 .0841-.0674.1523-.1508.1523z" fill-rule="evenodd"/><path d="m61.0102 20.5199c-.0842 0-.1525-.0683-.1525-.1525v-12.30883c0-.08425.0683-.15255.1525-.15255h1.6927c.0842 0 .1525.0683.1525.15255v12.30883c0 .0842-.0683.1525-.1525.1525z"/><path d="m46.944 20.5309c-.0618 0-.1175-.0372-.141-.0943l-3.2421-8.2142c-.0415-.1004.0323-.2108.141-.2108h1.798c.0626 0 .1189.0383.1419.0965l1.2001 3.4037c.3446.8862.6566 1.7397.9684 2.593.0035.0094.0124.0156.0223.0156s.0188-.0061.0223-.0153c.3282-.8701.6567-1.7565 1.0178-2.6428l1.1999-3.3549c.0232-.0579.0792-.0958.1415-.0958h1.6835c.1086 0 .1824.1101.1411.2105l-3.2262 8.2143c-.0235.0572-.0792.0945-.1411.0945z"/><path d="m39.1031 20.5309c-2.5261 0-4.4082-1.8656-4.4082-4.2596 0-2.4105 1.8821-4.2597 4.4082-4.2597s4.4083 1.8492 4.4083 4.2597c0 2.394-1.8822 4.2596-4.4083 4.2596zm0-1.7666c1.3704 0 2.4105-1.0896 2.4105-2.493s-1.0401-2.5096-2.4105-2.5096c-1.3868 0-2.4105 1.1062-2.4105 2.5096s1.0237 2.493 2.4105 2.493z"/><path clip-rule="evenodd" d="m25.9693 24c-.0843 0-.1526-.0683-.1526-.1525v-11.665c0-.0842.0683-.1525.1526-.1525h4.0741c2.1133 0 3.8634 1.651 3.8634 4.1606 0 2.5426-1.8161 4.3587-4.2266 4.3587-.7031 0-1.3091-.1619-1.8179-.4216-.0093-.0048-.0203-.0049-.0297-.0002-.0111.0056-.0181.0169-.0181.0293v3.6907c0 .0842-.0683.1525-.1525.1525zm3.4962-5.1347c-.5924 0-1.1554-.1767-1.5778-.4188-.0459-.0264-.0732-.0758-.0732-.1288v-4.4181c0-.0842.0683-.1525.1526-.1525h1.5975c1.4529 0 2.328 1.1227 2.328 2.5426 0 1.4694-.8916 2.5756-2.4271 2.5756z" fill-rule="evenodd"/><path d="m8.29557 20.5199c-.08425 0-.15255-.0683-.15255-.1525v-12.30883c0-.08425.0683-.15255.15255-.15255h1.69266c.08427 0 .15257.0683.15257.15255v5.07993c0 .0109.0061.0209.0159.0258.0104.0052.0228.0037.0316-.0038.6594-.5553 1.5783-.9783 2.6437-.9783.8915 0 1.6015.2807 2.1298.842.5118.5614.7099 1.2878.7099 2.3775v4.9657c0 .0842-.0683.1525-.1525.1525h-1.6927c-.0842 0-.1525-.0683-.1525-.1525v-4.718c0-.5779-.0826-1.0072-.3632-1.2878-.2807-.2807-.677-.4128-1.1227-.4128-.7375 0-1.4905.3581-2.0022.8474-.0292.028-.0451.0669-.0451.1074v5.4638c0 .0842-.0683.1525-.15257.1525z"/><path d="m3.33509 20.5493c-1.01067 0-2.25515-.2026-3.157905-.6836-.048596-.0259-.0781229-.0769-.0781229-.1319v-1.4801c0-.1208.1344259-.1947.2395489-.1352.983629.5569 2.175569.7963 3.029499.7963.90807 0 1.48593-.2642 1.48593-.842 0-.4128-.24765-.6274-.94109-.7925-.69343-.1651-1.96473-.3467-2.74072-.71-.792492-.3632-1.17223-.9906-1.17223-1.9317 0-1.717 1.40338-2.6086 3.36811-2.6086.97294 0 2.11538.2157 2.9212.6025.05169.0248.08369.0775.08369.1348v1.4025c0 .1151-.12302.1892-.22684.1394-.9363-.4495-1.98179-.6612-2.74503-.6612-.84203 0-1.40338.2477-1.40338.809 0 .4293.3137.6274 1.02364.7925.70995.1486 1.89869.3137 2.65817.6604.77599.3633 1.17223.9741 1.17223 1.9813 0 1.8161-1.58499 2.6581-3.5167 2.6581z"/><path clip-rule="evenodd" d="m23.663 20.5328h-3.9424c-1.618 0-2.8398-.875-2.8398-2.4435 0-1.7336 1.3374-2.5261 3.3681-2.5261.4953 0 1.0732.0495 1.6015.1321v-.4953c0-1.0071-.6769-1.4529-1.9647-1.4529-.8297 0-1.5602.2107-2.0949.471-.1055.0513-.2331-.0232-.2331-.1405v-1.3326c0-.0542.0286-.1046.0762-.1306.5984-.3266 1.5246-.5844 2.6481-.5844 2.2123 0 3.5332.9741 3.5332 2.9223v1.074l.8482.1429c.0735.0123.1272.0759.1272.1504v1.0088c0 .0947-.0853.1665-.1786.1503l-.7968-.1382v.7983 2.2415c0 .0843-.068.1525-.1522.1525zm-1.965-1.5354h-1.4986c-.7595 0-1.3538-.3137-1.3538-1.0402 0-.809.7759-1.0732 1.7005-1.0732.3963 0 .9246.0496 1.3043.1156v1.8452c0 .0843-.0682.1526-.1524.1526z" fill-rule="evenodd"/><path clip-rule="evenodd" d="m59.002 20.5328h-3.9424c-1.618 0-2.8397-.875-2.8397-2.4435 0-1.7336 1.3373-2.5261 3.3681-2.5261.4953 0 1.0732.0495 1.6015.1321v-.4953c0-1.0071-.6769-1.4529-1.9647-1.4529-.8297 0-1.5602.2107-2.095.471-.1055.0513-.233-.0232-.233-.1405v-1.3326c0-.0542.0285-.1046.0761-.1306.5984-.3266 1.5247-.5844 2.6481-.5844 2.2124 0 3.5332.9741 3.5332 2.9223v1.074l.8483.1429c.0734.0123.1272.0759.1272.1504v1.0088c0 .0947-.0853.1665-.1786.1503l-.7969-.1382v.7983 2.2415c0 .0843-.0679.1525-.1522.1525zm-1.965-1.5354h-1.4986c-.7594 0-1.3538-.3137-1.3538-1.0402 0-.809.776-1.0732 1.7006-1.0732.3962 0 .9245.0496 1.3043.1156v1.8452c0 .0843-.0682.1526-.1525.1526z" fill-rule="evenodd"/></g><path d="m76.9949.0540775c-.0043-.020235.0028-.0357032.0158-.04583124.0066-.00515957.0132-.00750177.0186-.00808266.0043-.00047573.0109-.00021308.0206.00495359 1.1706.62432981 2.1206 1.36616281 2.86 2.18541281 1.1338 1.25606 2.0833 2.7661 2.3079 4.40505.1466 1.06931.074 2.29984-.114 3.53292-.6503 4.2648-3.9924 7.9762-8.2426 8.5595-.2574.0354-.7426.028-1.288-.0633-.5442-.091-1.1266-.2621-1.5861-.5399-.0031-.0019-.0054-.004-.0054-.004s-.0004-.0031.0002-.0069c.0023-.0136.014-.034.0397-.045.7294-.3107 1.1231-.7722 1.3036-1.3194.1761-.5334.1421-1.1274.0671-1.6931-.0495-.3739-.1537-.736-.2537-1.082l-.0034-.0117c-.1003-.3465-.1959-.6769-.2439-1.0132-.0801-.5619-.0069-1.2063.3108-1.8957.3484-.7558 1.0653-1.26255 1.8114-1.77815 1.8813-1.30005 2.8315-2.68757 3.2029-4.2215.3688-1.52333.1599-3.16592-.2215-4.9600725z" fill="#ff831a"/><path d="m82.6887 7.50285c.0484-.36407.0966-.757.1489-1.18476.0164-.13397.1905-.17567.2655-.06345 3.0199 4.52136 2.5912 10.57206-.9606 14.68876-4.1578 4.9435-12.0995 3.5837-14.3758-2.4615l-.1413-.3752c-.0399-.106.0835-.2018.1807-.1436 1.2867.7709 2.4396.9455 3.5418.7396.3799.1506.7838.2512 1.1597.3141.5705.0955 1.0983.1076 1.4076.0651 4.448-.6105 7.9085-4.4789 8.5816-8.8935.1382-.90612.2171-1.82288.1919-2.68555z" fill="#ff831a"/><path d="m76.1367 6.57196c-.2115-.78932-.5978-1.56802-1.2086-2.30933-.0697-.08452-.206-.06388-.253.03505-.6675 1.4047-2.3156 2.42005-3.951 3.42757-2.4576 1.51411-4.8866 3.01055-3.9157 5.78415.0279.0798.1205.1205.1972.0848l.4875-.2267.6056-.243c1.4799-.5939 3.072.0673 3.7772 1.3471-.0367-.1405-.0775-.2822-.1192-.4267l-.0068-.0234c-.0978-.3381-.2002-.6917-.2521-1.0558-.0914-.6404-.0054-1.3619.3433-2.1183.4016-.87132 1.2182-1.43563 1.9461-1.93863 1.0929-.7552 1.8471-1.5303 2.3495-2.33681z" fill="#ff831a"/></svg>

<svg width="141" height="24" viewBox="0 0 141 24" fill="none" xmlns="http://www.w3.org/2000/svg">
<path d="M98.4857 21.7285C98.4857 21.6534 98.5697 21.608 98.634 21.6468C99.3155 22.0572 100.188 22.3078 101.032 22.3078C102.512 22.3078 103.372 21.4725 103.372 20.1072V19.6272C103.372 19.6162 103.366 19.6061 103.356 19.6011C103.346 19.5962 103.334 19.5971 103.326 19.6035C102.771 19.9986 102.06 20.2196 101.287 20.2196C99.2496 20.2196 97.5944 18.6775 97.5944 16.3163C97.5944 13.971 99.2656 12.1719 101.717 12.1719C102.576 12.1719 103.246 12.1719 103.913 12.1719H105.204C105.256 12.1719 105.298 12.2141 105.298 12.2661V20.1554C105.298 22.5809 103.674 23.9784 101.175 23.9784C100.166 23.9784 99.2165 23.7335 98.5352 23.3782C98.5045 23.3622 98.4857 23.3304 98.4857 23.2958V21.7285ZM99.5361 16.252C99.5361 17.6013 100.38 18.5972 101.748 18.5972C102.351 18.5972 102.924 18.3853 103.335 18.079C103.358 18.0616 103.372 18.0341 103.372 18.005V13.9366C103.372 13.8847 103.33 13.8425 103.278 13.8425C102.882 13.8425 102.359 13.8425 101.844 13.8425C100.364 13.8425 99.5361 14.9188 99.5361 16.252Z" fill="white"/>
<path d="M113.951 19.6851C113.951 19.7178 113.934 19.7482 113.906 19.7648C113.173 20.1984 112.068 20.4606 111.07 20.4606C108.523 20.4606 106.725 18.8542 106.725 16.3323C106.725 13.7783 108.539 12.1719 110.704 12.1719C112.662 12.1719 114.381 13.4731 114.381 16.0753C114.381 16.3 114.368 16.5862 114.344 16.7834C114.338 16.8291 114.299 16.8624 114.253 16.8624H108.778C108.72 16.8624 108.675 16.915 108.687 16.972C108.948 18.2161 109.962 18.8382 111.277 18.8382C112.173 18.8382 113.042 18.5409 113.803 18.066C113.867 18.0262 113.951 18.0714 113.951 18.1465V19.6851ZM108.704 15.403C108.692 15.4602 108.736 15.5131 108.795 15.5131H112.478C112.534 15.5131 112.577 15.4648 112.57 15.4096C112.405 14.2169 111.539 13.7461 110.688 13.7461C109.794 13.7461 108.945 14.3033 108.704 15.403Z" fill="white"/>
<path d="M115.947 20.2839C115.895 20.2839 115.853 20.2417 115.853 20.1898V12.4428C115.853 12.3908 115.895 12.3486 115.947 12.3486H117.669C117.721 12.3486 117.763 12.3908 117.763 12.4428V13.1188C117.763 13.1292 117.769 13.1387 117.778 13.1434C117.788 13.1485 117.8 13.1469 117.809 13.1395C118.445 12.5835 119.33 12.1719 120.373 12.1719C121.233 12.1719 121.917 12.445 122.426 12.9912C122.92 13.5373 123.111 14.2441 123.111 15.3043V20.1898C123.111 20.2417 123.069 20.2839 123.017 20.2839H121.279C121.227 20.2839 121.185 20.2417 121.185 20.1898V15.5452C121.185 14.983 121.105 14.5654 120.835 14.2923C120.564 14.0192 120.182 13.8907 119.752 13.8907C119.034 13.8907 118.3 14.2467 117.806 14.7308C117.789 14.7482 117.779 14.772 117.779 14.7969V20.1898C117.779 20.2417 117.737 20.2839 117.685 20.2839H115.947Z" fill="white"/>
<path d="M131.239 19.7993C131.239 19.8311 131.223 19.8607 131.196 19.8776C130.562 20.2763 129.676 20.4606 128.836 20.4606C126.273 20.4606 124.507 18.7257 124.507 16.3323C124.507 13.8746 126.385 12.1719 128.883 12.1719C129.707 12.1719 130.515 12.3556 131.131 12.723C131.159 12.7397 131.175 12.77 131.175 12.8026V14.386C131.175 14.4619 131.09 14.507 131.026 14.4665C130.449 14.1028 129.758 13.8586 129.027 13.8586C127.483 13.8586 126.448 14.8866 126.448 16.3163C126.448 17.7619 127.499 18.7579 129.043 18.7579C129.794 18.7579 130.545 18.5198 131.082 18.1517C131.147 18.107 131.239 18.1521 131.239 18.2311V19.7993Z" fill="white"/>
<path d="M135.623 23.7626C135.608 23.7962 135.574 23.8178 135.537 23.8178H133.741C133.672 23.8178 133.627 23.7459 133.656 23.6835L135.659 19.44C135.671 19.4149 135.671 19.3858 135.659 19.3606L132.508 12.482C132.479 12.4196 132.525 12.3486 132.593 12.3486H134.455C134.492 12.3486 134.525 12.3706 134.541 12.4046L135.614 14.8224C135.978 15.6524 136.326 16.4825 136.642 17.2652C136.646 17.2742 136.655 17.28 136.664 17.28C136.674 17.28 136.683 17.2743 136.686 17.2655C137.035 16.4352 137.383 15.6208 137.747 14.8063L138.82 12.4044C138.835 12.3705 138.869 12.3486 138.906 12.3486H140.656C140.725 12.3486 140.77 12.4193 140.742 12.4816L135.623 23.7626Z" fill="white"/>
<path fill-rule="evenodd" clip-rule="evenodd" d="M95.6967 20.4866H91.7981C90.198 20.4866 88.9898 19.6132 88.9898 18.0478C88.9898 16.3175 90.3123 15.5266 92.3206 15.5266C92.8104 15.5266 93.3818 15.576 93.9043 15.6584V15.1641C93.9043 14.1589 93.2349 13.714 91.9614 13.714C91.1409 13.714 90.4185 13.9242 89.8897 14.1841C89.7853 14.2353 89.6592 14.161 89.6592 14.0438V12.7138C89.6592 12.6597 89.6874 12.6095 89.7345 12.5835C90.3263 12.2575 91.2423 12.0002 92.3532 12.0002C94.541 12.0002 95.8472 12.9724 95.8472 14.9169V15.9888L96.6861 16.1314C96.7587 16.1437 96.8119 16.2072 96.8119 16.2815V17.2884C96.8119 17.3828 96.7275 17.4545 96.6352 17.4384L95.8472 17.3004V18.0972V20.3343C95.8472 20.4184 95.78 20.4866 95.6967 20.4866ZM93.7535 18.9541H92.2716C91.5205 18.9541 90.9327 18.641 90.9327 17.9159C90.9327 17.1085 91.7001 16.8449 92.6144 16.8449C93.0063 16.8449 93.5288 16.8943 93.9043 16.9602V18.8018C93.9043 18.8859 93.8369 18.9541 93.7535 18.9541Z" fill="white"/>
<path d="M61.0102 20.5199C60.926 20.5199 60.8577 20.4516 60.8577 20.3674V8.05857C60.8577 7.97432 60.926 7.90602 61.0102 7.90602H62.7029C62.7871 7.90602 62.8554 7.97432 62.8554 8.05857V20.3674C62.8554 20.4516 62.7871 20.5199 62.7029 20.5199H61.0102Z" fill="white"/>
<path d="M46.944 20.5309C46.8822 20.5309 46.8265 20.4937 46.803 20.4366L43.5609 12.2224C43.5194 12.122 43.5932 12.0116 43.7019 12.0116H45.4999C45.5625 12.0116 45.6188 12.0499 45.6418 12.1081L46.8419 15.5118C47.1865 16.398 47.4985 17.2515 47.8103 18.1048C47.8138 18.1142 47.8227 18.1204 47.8326 18.1204C47.8425 18.1204 47.8514 18.1143 47.8549 18.1051C48.1831 17.235 48.5116 16.3486 48.8727 15.4623L50.0726 12.1074C50.0958 12.0495 50.1518 12.0116 50.2141 12.0116H51.8976C52.0062 12.0116 52.08 12.1217 52.0387 12.2221L48.8125 20.4364C48.789 20.4936 48.7333 20.5309 48.6714 20.5309H46.944Z" fill="white"/>
<path d="M39.1031 20.5309C36.577 20.5309 34.6949 18.6653 34.6949 16.2713C34.6949 13.8608 36.577 12.0116 39.1031 12.0116C41.6292 12.0116 43.5114 13.8608 43.5114 16.2713C43.5114 18.6653 41.6292 20.5309 39.1031 20.5309ZM39.1031 18.7643C40.4735 18.7643 41.5136 17.6747 41.5136 16.2713C41.5136 14.8679 40.4735 13.7617 39.1031 13.7617C37.7163 13.7617 36.6926 14.8679 36.6926 16.2713C36.6926 17.6747 37.7163 18.7643 39.1031 18.7643Z" fill="white"/>
<path fill-rule="evenodd" clip-rule="evenodd" d="M25.9693 24C25.885 24 25.8167 23.9317 25.8167 23.8475V12.1825C25.8167 12.0983 25.885 12.03 25.9693 12.03H30.0434C32.1567 12.03 33.9068 13.681 33.9068 16.1906C33.9068 18.7332 32.0907 20.5493 29.6802 20.5493C28.9771 20.5493 28.3711 20.3874 27.8623 20.1277C27.853 20.1229 27.842 20.1228 27.8326 20.1275C27.8215 20.1331 27.8145 20.1444 27.8145 20.1568V23.8475C27.8145 23.9317 27.7462 24 27.662 24H25.9693ZM29.4655 18.8653C28.8731 18.8653 28.3101 18.6886 27.8877 18.4465C27.8418 18.4201 27.8145 18.3707 27.8145 18.3177V13.8996C27.8145 13.8154 27.8828 13.7471 27.9671 13.7471C28.4842 13.7471 28.9172 13.7471 29.5646 13.7471C31.0175 13.7471 31.8926 14.8698 31.8926 16.2897C31.8926 17.7591 31.001 18.8653 29.4655 18.8653Z" fill="white"/>
<path d="M8.29557 20.5199C8.21132 20.5199 8.14302 20.4516 8.14302 20.3674V8.05857C8.14302 7.97432 8.21132 7.90602 8.29557 7.90602H9.98823C10.0725 7.90602 10.1408 7.97432 10.1408 8.05857V13.1385C10.1408 13.1494 10.1469 13.1594 10.1567 13.1643C10.1671 13.1695 10.1795 13.168 10.1883 13.1605C10.8477 12.6052 11.7666 12.1822 12.832 12.1822C13.7235 12.1822 14.4335 12.4629 14.9618 13.0242C15.4736 13.5856 15.6717 14.312 15.6717 15.4017V20.3674C15.6717 20.4516 15.6034 20.5199 15.5192 20.5199H13.8265C13.7423 20.5199 13.674 20.4516 13.674 20.3674V15.6494C13.674 15.0715 13.5914 14.6422 13.3108 14.3616C13.0301 14.0809 12.6338 13.9488 12.1881 13.9488C11.4506 13.9488 10.6976 14.3069 10.1859 14.7962C10.1567 14.8242 10.1408 14.8631 10.1408 14.9036V20.3674C10.1408 20.4516 10.0725 20.5199 9.98823 20.5199H8.29557Z" fill="white"/>
<path d="M3.33509 20.5493C2.32442 20.5493 1.07994 20.3467 0.177185 19.8657C0.128589 19.8398 0.0990621 19.7888 0.0990621 19.7338V18.2537C0.0990621 18.1329 0.233488 18.059 0.338611 18.1185C1.32224 18.6754 2.51418 18.9148 3.36811 18.9148C4.27618 18.9148 4.85404 18.6506 4.85404 18.0728C4.85404 17.66 4.60639 17.4454 3.91295 17.2803C3.21952 17.1152 1.94822 16.9336 1.17223 16.5703C0.379738 16.2071 0 15.5797 0 14.6386C0 12.9216 1.40338 12.03 3.36811 12.03C4.34105 12.03 5.48349 12.2457 6.28931 12.6325C6.341 12.6573 6.373 12.71 6.373 12.7673V14.1698C6.373 14.2849 6.24998 14.359 6.14616 14.3092C5.20986 13.8597 4.16437 13.648 3.40113 13.648C2.5591 13.648 1.99775 13.8957 1.99775 14.457C1.99775 14.8863 2.31145 15.0844 3.02139 15.2495C3.73134 15.3981 4.92008 15.5632 5.67956 15.9099C6.45555 16.2732 6.85179 16.884 6.85179 17.8912C6.85179 19.7073 5.2668 20.5493 3.33509 20.5493Z" fill="white"/>
<path fill-rule="evenodd" clip-rule="evenodd" d="M23.663 20.5328H19.7206C18.1026 20.5328 16.8808 19.6578 16.8808 18.0893C16.8808 16.3557 18.2182 15.5632 20.2489 15.5632C20.7442 15.5632 21.3221 15.6127 21.8504 15.6953V15.2C21.8504 14.1929 21.1735 13.7471 19.8857 13.7471C19.056 13.7471 18.3255 13.9578 17.7908 14.2181C17.6853 14.2694 17.5577 14.1949 17.5577 14.0776V12.745C17.5577 12.6908 17.5863 12.6404 17.6339 12.6144C18.2323 12.2878 19.1585 12.03 20.282 12.03C22.4943 12.03 23.8152 13.0041 23.8152 14.9523V16.0263L24.6634 16.1692C24.7369 16.1815 24.7906 16.2451 24.7906 16.3196V17.3284C24.7906 17.4231 24.7053 17.4949 24.612 17.4787L23.8152 17.3405V18.1388V20.3803C23.8152 20.4646 23.7472 20.5328 23.663 20.5328ZM21.698 18.9974H20.1994C19.4399 18.9974 18.8456 18.6837 18.8456 17.9572C18.8456 17.1482 19.6215 16.884 20.5461 16.884C20.9424 16.884 21.4707 16.9336 21.8504 16.9996V18.8448C21.8504 18.9291 21.7822 18.9974 21.698 18.9974Z" fill="white"/>
<path fill-rule="evenodd" clip-rule="evenodd" d="M59.002 20.5328H55.0596C53.4416 20.5328 52.2199 19.6578 52.2199 18.0893C52.2199 16.3557 53.5572 15.5632 55.588 15.5632C56.0833 15.5632 56.6612 15.6127 57.1895 15.6953V15.2C57.1895 14.1929 56.5126 13.7471 55.2248 13.7471C54.3951 13.7471 53.6646 13.9578 53.1298 14.2181C53.0243 14.2694 52.8968 14.1949 52.8968 14.0776V12.745C52.8968 12.6908 52.9253 12.6404 52.9729 12.6144C53.5713 12.2878 54.4976 12.03 55.621 12.03C57.8334 12.03 59.1542 13.0041 59.1542 14.9523V16.0263L60.0025 16.1692C60.0759 16.1815 60.1297 16.2451 60.1297 16.3196V17.3284C60.1297 17.4231 60.0444 17.4949 59.9511 17.4787L59.1542 17.3405V18.1388V20.3803C59.1542 20.4646 59.0863 20.5328 59.002 20.5328ZM57.037 18.9974H55.5384C54.779 18.9974 54.1846 18.6837 54.1846 17.9572C54.1846 17.1482 54.9606 16.884 55.8852 16.884C56.2814 16.884 56.8097 16.9336 57.1895 16.9996V18.8448C57.1895 18.9291 57.1213 18.9974 57.037 18.9974Z" fill="white"/>
<path d="M76.9949 0.0540775C76.9906 0.0338425 76.9977 0.0183743 77.0107 0.00824626C77.0173 0.00308669 77.0239 0.000744491 77.0293 0.000163597C77.0336 -0.000312133 77.0402 -4.94816e-05 77.0499 0.00511719C78.2205 0.629447 79.1705 1.37128 79.9099 2.19053C81.0437 3.44659 81.9932 4.95663 82.2178 6.59558C82.3644 7.66489 82.2918 8.89542 82.1038 10.1285C81.4535 14.3933 78.1114 18.1047 73.8612 18.688C73.6038 18.7234 73.1186 18.716 72.5732 18.6247C72.029 18.5337 71.4466 18.3626 70.9871 18.0848C70.984 18.0829 70.9817 18.0808 70.9817 18.0808C70.9817 18.0808 70.9813 18.0777 70.9819 18.0739C70.9842 18.0603 70.9959 18.0399 71.0216 18.0289C71.751 17.7182 72.1447 17.2567 72.3252 16.7095C72.5013 16.1761 72.4673 15.5821 72.3923 15.0164C72.3428 14.6425 72.2386 14.2804 72.1386 13.9344L72.1352 13.9227C72.0349 13.5762 71.9393 13.2458 71.8913 12.9095C71.8112 12.3476 71.8844 11.7032 72.2021 11.0138C72.5505 10.258 73.2674 9.75125 74.0135 9.23565C75.8948 7.9356 76.845 6.54808 77.2164 5.01415C77.5852 3.49082 77.3763 1.84823 76.9949 0.0540775Z" fill="#FF831A"/>
<path d="M82.6887 7.50285C82.7371 7.13878 82.7853 6.74585 82.8376 6.31809C82.854 6.18412 83.0281 6.14242 83.1031 6.25464C86.123 10.776 85.6943 16.8267 82.1425 20.9434C77.9847 25.8869 70.043 24.5271 67.7667 18.4819L67.6254 18.1067C67.5855 18.0007 67.7089 17.9049 67.8061 17.9631C69.0928 18.734 70.2457 18.9086 71.3479 18.7027C71.7278 18.8533 72.1317 18.9539 72.5076 19.0168C73.0781 19.1123 73.6059 19.1244 73.9152 19.0819C78.3632 18.4714 81.8237 14.603 82.4968 10.1884C82.635 9.28228 82.7139 8.36552 82.6887 7.50285Z" fill="#FF831A"/>
<path d="M76.1367 6.57196C75.9252 5.78264 75.5389 5.00394 74.9281 4.26263C74.8584 4.17811 74.7221 4.19875 74.6751 4.29768C74.0076 5.70238 72.3595 6.71773 70.7241 7.72525C68.2665 9.23936 65.8375 10.7358 66.8084 13.5094C66.8363 13.5892 66.9289 13.6299 67.0056 13.5942L67.4931 13.3675L68.0987 13.1245C69.5786 12.5306 71.1707 13.1918 71.8759 14.4716C71.8392 14.3311 71.7984 14.1894 71.7567 14.0449L71.7499 14.0215C71.6521 13.6834 71.5497 13.3298 71.4978 12.9657C71.4064 12.3253 71.4924 11.6038 71.8411 10.8474C72.2427 9.97608 73.0593 9.41177 73.7872 8.90877C74.8801 8.15357 75.6343 7.37847 76.1367 6.57196Z" fill="#FF831A"/>
</svg>
